X:538
T:No-body's Jig
C:John Playford, 1679
S:Colin Hume's website,  colinhume.com  - chords can also be printed below the stave.
Q:1/2=116
M:2/2
L:1/4
K:G
P:A
|:g | "D7"fd de/f/ | "G"gG Gg | "D7"fd d/e/f/d/ | "G"g3a/g/ |\
"D"fd de/f/ | "G"gd "C"dc | "G"B2 "D7"A2 | "G"G3 :|
P:B
|: g | "D"fa- ag/f/ | "G"gb- ba/g/ | "D"fa- ag/f/ | "G"gb- ba/g/ |\
"D"f/g/a de/f/ | "G"gd- "C"dc | "G"B2 "D7"A2 | "G"G3 :|

